X:112
T:Dance Around Molly_Charlie Walden
C:
N:Transcribed by Tristan Scroggins Based on Charlie Walden's version from "Missouri Fiddle Tunes"
R:bluegrass
L:1/8
Q:1/4=250
M:4/4
K:A
A,C EF [AF]A [AA][cA] | [BA][AA] [cA][BA] AF EC | A,C EF [AF]A [AA][cA] | [BA][AA] [cA][BA] AF EC | 
A,C EF [AF]A [AA][cA] | [BA][AA] [cA][BA] AF [A2D2] | [e/d/]e2z/f ec Ac | c/4B3/4A GB [A/G/]A2z/A, | 
zC EF [AF]A [AA][cA] | [BA][AA] [cA][BA] AF EC | A,C EF [AF]A [AA][cA] | [BA][AA] [cA][BA] AF EC | 
A,C EF [AF]A [AA][cA] | [BA][AA] [cA][BA] AF [A2D2] | [e/d/]e2z/f ec Ac | c/4B3/4A GB [A/G/]A3/2 eg | 
ag ab af ea | fe cf ec ea | fg ab af =gf | eb b2 b4 | (3efg ab af ea | fe cf ec AF | 
EF Ac BA ce | af ec A4 | [fA]a ac' b[aA] eg | af ed cd ec | [fA]a ac' b[aA] c'a | 
ea bc' [b4A4] | eg ab af ea | fe cf ec AF | EF Ac BA ce | af ec A4 | 


